!!!OTL: Zhujian haojiao xiangdudu
!!!ARE: Asia, China,ÿHubei Wufeng
!! I, 417
!!!SCT: C2160
!!!YEM: Copyright 1995, estate of Helmut Schaffrath.
**kern
*ICvox
*Ivox
*M2/4
*k[]
*C:
{8.dd
16cc
8dd
8gg
=1
4ee
8dd
8ee
=2
2a
=3
2cc
=4
2dd
=5
2dd}
=6
{8ee
8ee
8cc
8ee
=7
4dd
4a
=8
16cc
16dd
8a
4cc
=9
16cc
16dd
8a
4cc}
=10
{8ee
4dd
8a
=11
4g
8a
8a
=12
8dd
8dd
4cc
=13
8a
4.a}
=14
{8a
8ee
8ee
8dd
=15
4cc
4a
=16
8a
8ee
8ee
8dd
=17
4cc
4a}
=18
{8a
8cc
8dd
8ee
=19
8a
8cc
4dd
=20
8dd
8ee
8ee
8dd
=21
4cc
4a}
=22
{8.a
16cc
8dd
8ee
=23
4a
4dd
=24
8dd
8ee
8ee
8dd
=25
4cc
4a}
=26
{8a
8a
8a
8cc
=27
4.dd
8ee
=28
8a
8a
4cc
=29
2a}
=30
{4a
8.a
16dd
=31
8.cc
16dd
4a
=32
8.cc
16ee
8dd
8cc
=33
4a
4cc}
==
!!!AGN: Xiaodiao, Erge
!!!ONB: ESAC (Essen Associative Code) Database: SENGANSU
!!!AMT: simple duple
!!!AIN: vox
!!!EED: Helmut Schaffrath
!!!EEV: 1.0
*-
